X: 1195
T: An Culyek Hos
R: jig
M: 6/8
K: Gminor
D|:G2 A B2 B|cBA G2 D|B2 c d2 e|1 dcA BGD:|2 dcA G3||
G2 A BAG|BAG B2 G|G2 A B>AG|B2 c d3|
Bcd ded|cBA BAG|B>cd ded|c>BA G2||

